X: 25265
T: Man In The Bog
R: jig
M: 6/8
K: Gmajor
|:G3 dGG|ABc AGE|D3 G2A|BAG ABA|
G3 dGG|ABc AGE|D3 G2A|1 BGF G2D:|2 BGF GBd||
|:g3 fed|e3 dBA|BGG dGG|BAG AB/c/d|
g3 fed|e3 dBA|BGG dGG|ABA GB/c/d|
g3 fed|e3 dBA|BGG dGG|BAG ABA|
G3 dGG|ABc AGE|D3 G2A|BGF G3||

